X:1
T:O God, Do Not in Silence Stand
T:Tune: Supplement to Kentucky Harmony, 1820 Text and harmonization under copyright; for copyrighted material see Psalter Hymnal 83
T:CM DETROIT www.hymnary.org/text/o_god_do_not_in_silence_stand
T:O God, Do Not in Silence Stand
T:This music is in the public domain. You may freely use this score for personal and congregational worship. If you reproduce the score, please credit Hymnary.org as the source. 
T:This music is in the public domain. You may freely use this score for personal and congregational worship. If you reproduce the score, please credit Hymnary.org as the source. 
Z:This music is in the public domain. You may freely use this score for personal and congregational worship. If you reproduce the score, please credit Hymnary.org as the source.
L:1/8
M:4/4
K:F
V:1 treble nm="SOPRANO ALTO" snm="S. A."
V:1
"^Unison" D2 | F2 G2 A3 F | GF DC D2 D2 | F2 G2 A2 c2 | d6 |1 A2 | d2 dc A3 G | FG AB c2 A2 | %8
 G3 F D2 C2 | D6 x2 |] %10

